X:1
T: The Humors of Castleoliver
C:
R:Jig
Q:180
K:D
M:6/8
L:1/16
A2B2c2 d6|e2d2c2 d4A2|A2B2c2 d4e2|f2e2d2 c2A2G2|FGA2B2 =c6|A2d2B2 =c4A2|G4A2 =c4A2|d2c2A2 G2E2D2|
A2B2c2 d6|e2d2c2 d4A2|A2B2c2 d4e2|f2e2d2 c2A2G2|FGA2B2 =c6|A2d2B2 =c4A2|G4A2 =c4A2|d2c2A2 G2E2D2|
ABA2G2 F4D2|D2E2D2 F4D2|D2D2D2 G4A2|B2A2G2 A2B2c2|dcB2A2 G4D2|D2E2D2 F4D2|D2D2D2 G4A2|B2A2G2 A2F2D2|
ABA2G2 F4D2|D2E2D2 F4D2|D2D2D2 G4A2|B2A2G2 A2B2c2|dcB2A2 G4D2|D2E2D2 F4D2|D2D2D2 G4A2|B2c2d2 A2F2D2||
